src/pos-icons/rocket-outline.svg

<svg height="24" viewBox="0 0 24 24" width="24" xmlns="http://www.w3.org/2000/svg"><path d="m12 2s-5 2-5 10c0 3.1.76 5.75 1.67 7.83.33.72 1.04 1.17 1.83 1.17h3c.79 0 1.5-.45 1.83-1.17.92-2.08 1.67-4.73 1.67-7.83 0-8-5-10-5-10m1.5 17h-3c-1-2.24-1.5-4.59-1.5-7 0-4.64 1.9-6.8 3-7.67 1.1.87 3 3.03 3 7.67 0 2.41-.5 4.76-1.5 7m6.5 3-3.86-1.55c.7-1.53 1.2-3.11 1.51-4.72m-9.79 4.72-3.86 1.55 2.35-6.27c.31 1.61.81 3.19 1.51 4.72m4.14-8.45c-1.1 0-2-.9-2-2s.9-2 2-2 2 .9 2 2-.9 2-2 2z"/></svg>

<?xml version="1.0" encoding="UTF-8"?><!DOCTYPE svg PUBLIC "-//W3C//DTD SVG 1.1//EN" "http://www.w3.org/Graphics/SVG/1.1/DTD/svg11.dtd"><svg xmlns="http://www.w3.org/2000/svg" xmlns:xlink="http://www.w3.org/1999/xlink" version="1.1" id="mdi-rocket-outline" width="24" height="24" viewBox="0 0 24 24"><path d="M12 2C12 2 7 4 7 12C7 15.1 7.76 17.75 8.67 19.83C9 20.55 9.71 21 10.5 21H13.5C14.29 21 15 20.55 15.33 19.83C16.25 17.75 17 15.1 17 12C17 4 12 2 12 2M13.5 19H10.5C9.5 16.76 9 14.41 9 12C9 7.36 10.9 5.2 12 4.33C13.1 5.2 15 7.36 15 12C15 14.41 14.5 16.76 13.5 19M20 22L16.14 20.45C16.84 18.92 17.34 17.34 17.65 15.73M7.86 20.45L4 22L6.35 15.73C6.66 17.34 7.16 18.92 7.86 20.45M12 12C10.9 12 10 11.1 10 10C10 8.9 10.9 8 12 8C13.1 8 14 8.9 14 10C14 11.1 13.1 12 12 12Z" /></svg>
